X: 1010
T: There's Nae Luck aboot the Hoose
P: There's Nae Luck aboot the Hoose
C:Johnson's Museum, 1788
R:Strathspey (8x32)
B:RSCDS 10-10
Z:Anselm Lingnau <anselm@strathspey.org>
M:C
L:1/8
K:G
d|"G"g>e "G7"d>B "C"c>d e>f|"G"g>e "C"d>B "D"A3 d|\
  "G"g>e "G7"d>B "C"c>d e>g|"G"d>c "D7"B<A "G"G3 d|
  "G"g>e "G7"d>B "C"c>d e>f|"G"g>e "C"d>B "D"A3 d|\
  "G"g>e "G7"d>B "C"c>d e>g|"G"d>c "D7"B<A "G"G3||
G/A/|"G"B>B B<G "C"c>c c>A|"G"B>B B<G "D"A3 G/A/|\
  "G"B>B B<G "C"c>d e>g|"D"d>c "D7"B<A "G"G3 G/A/|
  "G"B>B B<G "C"c>c c>A|"G"B>B B<G "D"A3 G/A/|\
  "G"B>B B<G "C"c>d e>g|"D"d>c "D7"B<A "G"G3|]
%%center Book10/1010-Theres_Nae_Luck_aboot_the_Hoose-AL.abc

%%sep 1 1 500
%%sep 1 1 500

